_images/SocialNetwork/linkedin.svg

<svg width="30" height="30" viewBox="0 0 30 30" fill="none" xmlns="http://www.w3.org/2000/svg">
<path d="M15 30C23.2843 30 30 23.2843 30 15C30 6.71573 23.2843 0 15 0C6.71573 0 0 6.71573 0 15C0 23.2843 6.71573 30 15 30Z" fill="#007AB9"/>
<path d="M23.9624 16.207V22.3912H20.3769V16.6215C20.3769 15.1727 19.8593 14.1834 18.5611 14.1834C17.5704 14.1834 16.9819 14.8495 16.722 15.4944C16.6276 15.7249 16.6033 16.045 16.6033 16.3682V22.3909H13.0176C13.0176 22.3909 13.0657 12.6189 13.0176 11.6074H16.6035V13.1355C16.5963 13.1475 16.5862 13.1593 16.5797 13.1708H16.6035V13.1355C17.08 12.4023 17.9298 11.3542 19.8349 11.3542C22.1938 11.3542 23.9624 12.8954 23.9624 16.207ZM9.26664 6.40932C8.04013 6.40932 7.23769 7.21443 7.23769 8.27222C7.23769 9.30755 8.01687 10.1359 9.21958 10.1359H9.24285C10.4934 10.1359 11.271 9.30755 11.271 8.27222C11.2472 7.21443 10.4934 6.40932 9.26664 6.40932ZM7.4508 22.3912H11.0352V11.6074H7.4508V22.3912Z" fill="#F1F2F2"/>
</svg>

<svg xmlns="http://www.w3.org/2000/svg" width="30" height="30" fill="none"><path fill="#007AB9" d="M15 30c8.284 0 15-6.716 15-15 0-8.284-6.716-15-15-15C6.716 0 0 6.716 0 15c0 8.284 6.716 15 15 15Z"/><path fill="#F1F2F2" d="M23.962 16.207v6.184h-3.585v-5.77c0-1.448-.518-2.438-1.816-2.438-.99 0-1.58.667-1.839 1.311-.094.23-.119.551-.119.874v6.023h-3.585s.048-9.772 0-10.784h3.585v1.529c-.007.012-.017.023-.023.035h.024v-.035c.476-.734 1.326-1.782 3.23-1.782 2.36 0 4.128 1.541 4.128 4.853ZM9.267 6.409c-1.227 0-2.03.805-2.03 1.863 0 1.036.78 1.864 1.983 1.864h.023c1.25 0 2.028-.828 2.028-1.864-.024-1.058-.778-1.863-2.004-1.863ZM7.45 22.391h3.584V11.607H7.451v10.784Z"/></svg>
